img/logo.svg

<svg width="205" height="32" viewBox="0 0 205 32" fill="none" xmlns="http://www.w3.org/2000/svg">
<path d="M83.984 19.488V12.528C83.984 9.792 82.496 7.776 78.392 7.776C74.288 7.776 72.8 9.792 72.8 12.528V19.488C72.8 22.224 74.288 24.24 78.392 24.24C82.496 24.24 83.984 22.224 83.984 19.488ZM78.392 22.968C75.32 22.968 74.216 21.72 74.216 19.44V12.576C74.216 10.296 75.32 9.048 78.392 9.048C81.464 9.048 82.568 10.296 82.568 12.576V19.44C82.568 21.72 81.464 22.968 78.392 22.968ZM96.2051 12.312H94.7891L91.1651 23.016L87.5651 12.312H86.1491L90.1091 24H92.2451L96.2051 12.312ZM99.4023 20.04V18.576H106.626V16.32C106.626 13.92 105.666 12.072 102.378 12.072C99.0903 12.072 98.0103 13.92 98.0103 16.32V19.992C98.0103 22.536 99.0663 24.24 102.354 24.24C103.77 24.24 105.306 23.976 106.386 23.592L106.146 22.464C104.994 22.776 103.65 23.016 102.45 23.016C100.122 23.016 99.4023 22.128 99.4023 20.04ZM99.4023 16.272C99.4023 14.304 100.194 13.272 102.378 13.272C104.562 13.272 105.258 14.304 105.258 16.272V17.328H99.4023V16.272ZM115.015 12.072C113.911 12.48 112.663 13.272 111.415 14.088L111.343 12.312H110.095V24H111.487V15.6C112.615 14.856 113.959 13.968 115.183 13.44L115.015 12.072ZM121.235 24L124.307 13.32L127.379 24H129.467L132.131 12.312H130.811L128.387 23.064L125.243 12.312H123.371L120.203 23.064L117.803 12.312H116.483L119.147 24H121.235ZM143.246 19.992V16.32C143.246 13.92 141.998 12.072 138.71 12.072C135.422 12.072 134.174 13.92 134.174 16.32V19.992C134.174 22.392 135.422 24.24 138.71 24.24C141.998 24.24 143.246 22.392 143.246 19.992ZM141.854 20.04C141.854 22.008 140.894 22.992 138.71 22.992C136.526 22.992 135.566 22.008 135.566 20.04V16.272C135.566 14.304 136.526 13.32 138.71 13.32C140.894 13.32 141.854 14.304 141.854 16.272V20.04ZM148.12 24V7.344L146.728 7.536V24H148.12ZM158.596 7.392C157.9 7.176 156.868 7.056 156.196 7.056C154.348 7.056 153.172 7.944 153.172 9.864V12.312H150.988V13.512H153.172V24H154.564V13.512H158.02L158.164 12.312H154.564V10.032C154.564 8.76 154.972 8.256 156.292 8.256C156.94 8.256 157.636 8.328 158.404 8.472L158.596 7.392ZM175.256 20.04C175.256 17.016 175.016 16.416 170.816 15.36C167.456 14.52 167.384 14.4 167.384 11.808C167.384 9.816 167.816 9.048 170.984 9.048C172.232 9.048 173.72 9.264 174.896 9.528L175.064 8.328C173.984 8.016 172.328 7.776 170.936 7.776C166.928 7.776 165.968 9.144 165.968 11.76C165.968 14.976 166.4 15.672 170.264 16.56C173.816 17.376 173.84 17.64 173.84 20.112C173.84 22.152 173.096 22.968 170.36 22.968C168.968 22.968 167.504 22.752 166.064 22.32L165.8 23.472C167.168 24 168.92 24.24 170.312 24.24C174.368 24.24 175.256 22.656 175.256 20.04ZM179.215 8.016V24H184.495C188.383 24 189.487 21.984 189.487 19.272V12.744C189.487 10.032 188.383 8.016 184.495 8.016H179.215ZM180.631 9.288H184.519C187.207 9.288 188.071 10.392 188.071 12.672V19.344C188.071 21.624 187.207 22.728 184.519 22.728H180.631V9.288ZM194.787 8.016H193.371V24H194.787V8.016ZM203.451 8.016H201.699L195.339 15.864L202.131 24H203.907L197.043 15.864L203.451 8.016Z" fill="#F4F2FF"/>
<path d="M55.1162 12.6747V6.36461C55.1162 5.79096 55.0004 5.21732 54.769 4.75841C54.6532 4.18476 54.306 3.72585 53.9588 3.38166C53.6115 3.03748 53.1486 2.69329 52.6856 2.46383C52.1069 2.3491 51.644 2.23438 51.0653 2.23438H49.6764V3.84058H51.0653C52.6856 3.84058 53.4958 4.64368 53.4958 6.36461V12.6747C53.4958 13.0189 53.6115 13.3631 53.7273 13.7072C53.843 14.0514 54.0745 14.3956 54.306 14.7398C54.5375 15.084 54.769 15.3134 55.1162 15.5429C55.4634 15.7724 55.8106 15.8871 56.1578 16.0018C55.8106 16.1165 55.4634 16.2313 55.1162 16.4607C54.769 16.6902 54.5375 16.9196 54.306 17.2638C54.0745 17.608 53.843 17.9522 53.7273 18.2964C53.6115 18.6406 53.4958 18.9848 53.4958 19.3289V25.639C53.4958 27.2452 52.6856 28.1631 51.0653 28.1631H49.6764V29.7693H51.0653C51.644 29.7693 52.2227 29.6545 52.6856 29.4251C53.1486 29.1956 53.6115 28.9662 53.9588 28.5072C54.306 28.1631 54.6532 27.7041 54.769 27.2452C55.0004 26.7863 55.1162 26.2127 55.1162 25.5243V19.2142C55.1162 17.608 56.0421 16.6902 57.7782 16.6902V15.084C56.0421 15.1987 55.1162 14.3956 55.1162 12.6747ZM7.31525 2.57856C6.85229 2.69329 6.38932 3.03748 6.0421 3.38166C5.69488 3.72585 5.4634 4.18476 5.23192 4.64368C5.00043 5.21732 5.00043 5.79096 5.00043 6.36461V12.6747C5.00043 14.2809 4.07451 15.1987 2.22266 15.1987V16.8049C4.07451 16.8049 5.00043 17.608 5.00043 19.3289V25.639C5.00043 26.2127 5.11617 26.7863 5.34766 27.36C5.4634 27.8189 5.69488 28.2778 6.0421 28.622C6.38932 28.9662 6.85229 29.3103 7.31525 29.5398C7.89395 29.6545 8.35692 29.7693 8.93562 29.7693H10.3245V28.0483H8.93562C7.31525 28.0483 6.50506 27.2452 6.50506 25.5243V19.2142C6.50506 18.87 6.38932 18.5258 6.27358 18.1817C6.15784 17.8375 5.92636 17.4933 5.69488 17.1491C5.4634 16.8049 5.23192 16.5755 4.88469 16.346C4.53747 16.1165 4.30599 16.0018 3.84303 15.8871C4.19025 15.7724 4.53747 15.6576 4.88469 15.4282C5.23192 15.1987 5.4634 14.9693 5.69488 14.6251C5.92636 14.2809 6.0421 13.9367 6.15784 13.5925C6.27358 13.2483 6.38932 12.9041 6.38932 12.56V6.36461C6.38932 4.75841 7.19951 3.84058 8.81988 3.84058H10.3245V2.23438H8.93562C8.35692 2.23438 7.89395 2.3491 7.31525 2.57856ZM26.0652 7.39717L19.2365 2.23438L20.1625 12.9041L17.269 16.9196L18.5421 20.8204C19.931 21.3941 21.2041 22.0824 22.3615 23.115C22.4773 21.9677 22.7088 20.2468 22.9402 19.4437L20.7412 19.7879C21.4356 15.3134 23.4032 11.1832 26.0652 7.39717ZM40.7643 2.23438C34.2828 7.16771 32.1995 7.85608 29.769 13.9367L33.1254 13.2483C28.9588 17.608 26.4125 23.3445 25.9495 27.8189L26.7597 29.7693H33.2412C34.2828 27.4747 35.7875 22.8855 41.343 20.8204L42.6162 16.9196L39.7227 12.9041L40.7643 2.23438ZM30.0004 27.5894L27.9171 24.6065H31.968L30.0004 27.5894ZM31.5051 17.8375L36.8291 15.1987C35.6717 17.9522 35.2088 18.4111 31.5051 17.8375ZM28.3801 17.8375L23.056 15.1987C24.3291 17.9522 24.6764 18.4111 28.3801 17.8375Z" fill="#F4F2FF"/>
</svg>

<svg width="205" height="32" viewBox="0 0 205 32" fill="none" xmlns="http://www.w3.org/2000/svg"><path d="M83.984 19.488v-6.96c0-2.736-1.488-4.752-5.592-4.752-4.104 0-5.592 2.016-5.592 4.752v6.96c0 2.736 1.488 4.752 5.592 4.752 4.104 0 5.592-2.016 5.592-4.752zm-5.592 3.48c-3.072 0-4.176-1.248-4.176-3.528v-6.864c0-2.28 1.104-3.528 4.176-3.528s4.176 1.248 4.176 3.528v6.864c0 2.28-1.104 3.528-4.176 3.528zm17.813-10.656H94.79l-3.624 10.704-3.6-10.704H86.15L90.11 24h2.136l3.96-11.688zm3.197 7.728v-1.464h7.224V16.32c0-2.4-.96-4.248-4.248-4.248-3.288 0-4.368 1.848-4.368 4.248v3.672c0 2.544 1.056 4.248 4.344 4.248 1.416 0 2.952-.264 4.032-.648l-.24-1.128c-1.152.312-2.496.552-3.696.552-2.328 0-3.048-.888-3.048-2.976zm0-3.768c0-1.968.792-3 2.976-3s2.88 1.032 2.88 3v1.056h-5.856v-1.056zm15.613-4.2c-1.104.408-2.352 1.2-3.6 2.016l-.072-1.776h-1.248V24h1.392v-8.4c1.128-.744 2.472-1.632 3.696-2.16l-.168-1.368zM121.235 24l3.072-10.68L127.379 24h2.088l2.664-11.688h-1.32l-2.424 10.752-3.144-10.752h-1.872l-3.168 10.752-2.4-10.752h-1.32L119.147 24h2.088zm22.011-4.008V16.32c0-2.4-1.248-4.248-4.536-4.248-3.288 0-4.536 1.848-4.536 4.248v3.672c0 2.4 1.248 4.248 4.536 4.248 3.288 0 4.536-1.848 4.536-4.248zm-1.392.048c0 1.968-.96 2.952-3.144 2.952s-3.144-.984-3.144-2.952v-3.768c0-1.968.96-2.952 3.144-2.952s3.144.984 3.144 2.952v3.768zM148.12 24V7.344l-1.392.192V24h1.392zm10.476-16.608c-.696-.216-1.728-.336-2.4-.336-1.848 0-3.024.888-3.024 2.808v2.448h-2.184v1.2h2.184V24h1.392V13.512h3.456l.144-1.2h-3.6v-2.28c0-1.272.408-1.776 1.728-1.776.648 0 1.344.072 2.112.216l.192-1.08zm16.66 12.648c0-3.024-.24-3.624-4.44-4.68-3.36-.84-3.432-.96-3.432-3.552 0-1.992.432-2.76 3.6-2.76 1.248 0 2.736.216 3.912.48l.168-1.2c-1.08-.312-2.736-.552-4.128-.552-4.008 0-4.968 1.368-4.968 3.984 0 3.216.432 3.912 4.296 4.8 3.552.816 3.576 1.08 3.576 3.552 0 2.04-.744 2.856-3.48 2.856-1.392 0-2.856-.216-4.296-.648l-.264 1.152c1.368.528 3.12.768 4.512.768 4.056 0 4.944-1.584 4.944-4.2zm3.959-12.024V24h5.28c3.888 0 4.992-2.016 4.992-4.728v-6.528c0-2.712-1.104-4.728-4.992-4.728h-5.28zm1.416 1.272h3.888c2.688 0 3.552 1.104 3.552 3.384v6.672c0 2.28-.864 3.384-3.552 3.384h-3.888V9.288zm14.156-1.272h-1.416V24h1.416V8.016zm8.664 0h-1.752l-6.36 7.848L202.131 24h1.776l-6.864-8.136 6.408-7.848zM55.116 12.675v-6.31c0-.574-.116-1.148-.347-1.607-.116-.573-.463-1.032-.81-1.376a5.139 5.139 0 00-1.273-.918c-.58-.115-1.042-.23-1.62-.23h-1.39v1.607h1.39c1.62 0 2.43.803 2.43 2.524v6.31c0 .344.115.688.231 1.032.116.344.348.689.579 1.033.232.344.463.573.81.803.347.23.695.344 1.042.459-.347.114-.695.23-1.042.459-.347.23-.578.459-.81.803-.231.344-.463.688-.579 1.032-.115.345-.231.689-.231 1.033v6.31c0 1.606-.81 2.524-2.43 2.524h-1.39v1.606h1.39c.578 0 1.157-.114 1.62-.344.463-.23.925-.459 1.273-.918.347-.344.694-.803.81-1.262.231-.459.347-1.032.347-1.72v-6.31c0-1.607.926-2.525 2.662-2.525v-1.606c-1.736.115-2.662-.688-2.662-2.41zM7.316 2.579c-.464.114-.927.458-1.274.803-.347.344-.579.803-.81 1.262C5 5.217 5 5.79 5 6.364v6.31c0 1.607-.925 2.525-2.777 2.525v1.606c1.852 0 2.777.803 2.777 2.524v6.31c0 .574.116 1.147.348 1.721.115.459.347.918.694 1.262s.81.688 1.273.918c.579.114 1.042.23 1.62.23h1.39v-1.722h-1.39c-1.62 0-2.43-.803-2.43-2.524v-6.31c0-.344-.116-.688-.231-1.032-.116-.345-.348-.689-.58-1.033a2.693 2.693 0 00-.81-.803 2.87 2.87 0 00-1.041-.459c.347-.115.694-.23 1.042-.459.347-.23.578-.459.81-.803.231-.344.347-.688.463-1.033.116-.344.231-.688.231-1.032V6.365c0-1.607.81-2.524 2.43-2.524h1.505V2.234H8.937c-.58 0-1.042.115-1.62.345zm18.75 4.818l-6.83-5.163.927 10.67-2.894 4.016 1.273 3.9c1.389.574 2.662 1.262 3.82 2.295.115-1.147.347-2.868.578-3.671l-2.199.344c.695-4.475 2.662-8.605 5.324-12.39zm14.698-5.163C34.283 7.168 32.2 7.856 29.77 13.937l3.356-.689c-4.166 4.36-6.712 10.097-7.175 14.57l.81 1.951h6.481c1.042-2.294 2.547-6.883 8.102-8.949l1.273-3.9-2.893-4.016 1.041-10.67zM30 27.59l-2.083-2.982h4.051L30 27.588zm1.505-9.752L36.83 15.2c-1.157 2.753-1.62 3.212-5.324 2.638zm-3.125 0L23.056 15.2c1.273 2.753 1.62 3.212 5.324 2.638z" fill="#F4F2FF"/></svg>
